X:1
T:Årsunda Skänklåt
R:Skänklåt
Z:Göran Hed 2009-01-06
O:Årsunda, Gästrikland
S:efter Erik Hartwig
Q:80
M: 2/4
L: 1/16
K:C 
G2|:c4 GEGc|e3d cdef|gag^f g2a2|g4 eGce|
e2d2 d2d2|d4 defd|B2G2 B2d2|dccB c2G2|
c4 GEGc|e3d cdef|gag^f g2a2|g4 eGce|
e2d2 d2d2|d4 defd|B2B2 B2AB|1c6 G2:|2c6 e2|
K:F
|:f4 fefa|F6 c2|caag gffe|edd^c d2gf|
e2gf d2fe|c6 cB|A2cA F2fe|d2fd B2ba|
g2bg e2ge|c6 eg|f4 fefg|1f6 c2:|2f8|

